Numix/32/devices/scanner.svg

<svg xmlns="http://www.w3.org/2000/svg" viewBox="0 0 32 32">
 <rect y="6" x="2" height="20" width="28" style="fill:#4d4d4d;opacity:1;fill-opacity:1;stroke:none;fill-rule:nonzero"/>
 <rect y="9" x="5" height="14" width="22" style="fill:#fffedb;opacity:1;fill-opacity:1;stroke:none;fill-rule:nonzero"/>
 <path d="m 7 21 16 0 0 -6.04 -5 2.04 -4 -4 -3 6 -2 -3.033" style="fill:#a6e3ff;fill-opacity:1;stroke:none;fill-rule:evenodd"/>
 <path d="m 22 3 8 3 0 20 -8 3 z" style="fill:#858585;opacity:1;fill-opacity:1;stroke:none;fill-rule:nonzero"/>
 <circle r="0.75" cy="22.75" cx="3.5" style="fill:#e4db5c;opacity:1;fill-opacity:1;stroke:none;fill-rule:nonzero"/>
 <circle cx="3.5" cy="20.25" r="0.75" style="fill:#858585;opacity:1;fill-opacity:1;stroke:none;fill-rule:nonzero"/>
 <circle r="0.75" cy="17.75" cx="3.5" style="fill:#858585;opacity:1;fill-opacity:1;stroke:none;fill-rule:nonzero"/>
 <circle r="1.5" cy="13.5" cx="8.5" style="fill:#f6e972;opacity:1;fill-opacity:1;stroke:none;fill-rule:nonzero"/>
 <path d="m 6 6 0 20 2 0 0 -20 -2 0" style="fill:#fff;opacity:0.3;fill-opacity:1;stroke:none;fill-rule:nonzero"/>
</svg>

<?xml version="1.0" encoding="UTF-8" standalone="no"?>
<svg
   xmlns:dc="http://purl.org/dc/elements/1.1/"
   xmlns:cc="http://creativecommons.org/ns#"
   xmlns:rdf="http://www.w3.org/1999/02/22-rdf-syntax-ns#"
   xmlns:svg="http://www.w3.org/2000/svg"
   xmlns="http://www.w3.org/2000/svg"
   xmlns:sodipodi="http://sodipodi.sourceforge.net/DTD/sodipodi-0.dtd"
   xmlns:inkscape="http://www.inkscape.org/namespaces/inkscape"
   viewBox="0 0 32 32"
   id="svg3125"
   version="1.1"
   inkscape:version="0.91 r"
   sodipodi:docname="scanner.svg"
   width="32"
   height="32">
  <sodipodi:namedview
     pagecolor="#ffffff"
     bordercolor="#666666"
     borderopacity="1"
     objecttolerance="10"
     gridtolerance="10"
     guidetolerance="10"
     inkscape:pageopacity="0"
     inkscape:pageshadow="2"
     inkscape:window-width="1920"
     inkscape:window-height="1056"
     id="namedview3139"
     showgrid="true"
     inkscape:zoom="27.812866"
     inkscape:cx="13.795143"
     inkscape:cy="3.534711"
     inkscape:window-x="0"
     inkscape:window-y="24"
     inkscape:window-maximized="1"
     inkscape:current-layer="svg3125">
    <inkscape:grid
       id="grid4151"
       type="xygrid" />
  </sodipodi:namedview>
  <metadata
     id="metadata3143">
    <rdf:RDF>
      <cc:Work
         rdf:about="">
        <dc:format>image/svg+xml</dc:format>
        <dc:type
           rdf:resource="http://purl.org/dc/dcmitype/StillImage" />
        <dc:title />
      </cc:Work>
    </rdf:RDF>
  </metadata>
  <defs
     id="defs3141" />
  <rect
     y="6"
     x="2"
     height="20"
     width="28"
     id="rect4153"
     style="opacity:1;fill:#4d4d4d;fill-opacity:1;fill-rule:nonzero;stroke:none;stroke-width:2;stroke-linecap:round;stroke-linejoin:miter;stroke-miterlimit:4;stroke-dasharray:none;stroke-dashoffset:0;stroke-opacity:1" />
  <rect
     y="9"
     x="5"
     height="14"
     width="22"
     id="rect4155"
     style="opacity:1;fill:#fffedb;fill-opacity:1;fill-rule:nonzero;stroke:none;stroke-width:2;stroke-linecap:round;stroke-linejoin:miter;stroke-miterlimit:4;stroke-dasharray:none;stroke-dashoffset:0;stroke-opacity:1" />
  <path
     sodipodi:nodetypes="cccccccc"
     inkscape:connector-curvature="0"
     id="path4166"
     d="M 7,21 23,21 23,14.960265 18,17 14,13 11,19 9,15.966887 Z"
     style="fill:#a6e3ff;fill-opacity:1;fill-rule:evenodd;stroke:none;stroke-width:1px;stroke-linecap:butt;stroke-linejoin:miter;stroke-opacity:1" />
  <path
     sodipodi:nodetypes="ccccc"
     inkscape:connector-curvature="0"
     id="rect4157"
     d="m 22,3 8,3 0,20 -8,3 z"
     style="opacity:1;fill:#858585;fill-opacity:1;fill-rule:nonzero;stroke:none;stroke-width:2;stroke-linecap:round;stroke-linejoin:miter;stroke-miterlimit:4;stroke-dasharray:none;stroke-dashoffset:0;stroke-opacity:1" />
  <circle
     r="0.75"
     cy="22.75"
     cx="3.5"
     id="path4160"
     style="opacity:1;fill:#e4db5c;fill-opacity:1;fill-rule:nonzero;stroke:none;stroke-width:2;stroke-linecap:round;stroke-linejoin:miter;stroke-miterlimit:4;stroke-dasharray:none;stroke-dashoffset:0;stroke-opacity:1" />
  <circle
     style="opacity:1;fill:#858585;fill-opacity:1;fill-rule:nonzero;stroke:none;stroke-width:2;stroke-linecap:round;stroke-linejoin:miter;stroke-miterlimit:4;stroke-dasharray:none;stroke-dashoffset:0;stroke-opacity:1"
     id="circle4162"
     cx="3.5"
     cy="20.25"
     r="0.75" />
  <circle
     r="0.75"
     cy="17.75"
     cx="3.5"
     id="circle4164"
     style="opacity:1;fill:#858585;fill-opacity:1;fill-rule:nonzero;stroke:none;stroke-width:2;stroke-linecap:round;stroke-linejoin:miter;stroke-miterlimit:4;stroke-dasharray:none;stroke-dashoffset:0;stroke-opacity:1" />
  <circle
     r="1.5"
     cy="13.5"
     cx="8.5"
     id="path4168"
     style="opacity:1;fill:#f6e972;fill-opacity:1;fill-rule:nonzero;stroke:none;stroke-width:2;stroke-linecap:round;stroke-linejoin:miter;stroke-miterlimit:4;stroke-dasharray:none;stroke-dashoffset:0;stroke-opacity:1" />
  <path
     inkscape:connector-curvature="0"
     id="rect4170"
     d="M 6,6 6,26 8,26 8,6 6,6 Z"
     style="opacity:0.3;fill:#ffffff;fill-opacity:1;fill-rule:nonzero;stroke:none;stroke-width:2;stroke-linecap:round;stroke-linejoin:miter;stroke-miterlimit:4;stroke-dasharray:none;stroke-dashoffset:0;stroke-opacity:1" />
</svg>
